X: 364
T: Kaiha diao
L: 1/4
M: 3/4
K: F
AED [I:setbarnb 1]| 
C/ D/C2 | 
C2-C/ f/ | 
Acc/ c// G// | 
FA2 | 
GED | 
CD/ C/A, | 
GA/ G/F | 
G2A | 
DFC/ D/ | 
C3 |]

@@@ Tune index: 9238
